X: 17121
T: Heilan' Donald Kissed Kitty
R: strathspey
M: 4/4
K: Gmajor
|:G/G/G G>A B>ABg|G/G/G G>A B/c/d/B/ A2|G/G/G G>A B>ABd|1 e>gd>g B>gA[Bg]:|2 e>gd>g B>g A2||
|:B/c/d d>e g>de>d|B/c/d d>e g>B A2|B/c/d d>e g>de>d|1 (3cdc (3BcB g>B A2:|2 (3cdc (3BcB g>BAg||

